X:1
T:L'Inverno
T:L'Inverno - II
T:Antonio Vivaldi
T:Concerto No. 4 in F minor, Op. 8, RV 297
T:Public Domain
C:Antonio Vivaldi
Z:Public Domain
%%score { 1 | 2 }
L:1/8
Q:1/4=32
M:4/4
K:Eb
V:1 treble nm="Piano"
V:2 bass 
V:1
"^Largo"!mf! e(b/a/) g(f/e/) fB z B | (a/g/)(f/e/) da ag z g | f(g/a/) b(c'/d'/) e(f/g/) a(b/c'/) | %3
 d(e/f/) g(a/b/) c(d/e/) f(g/e/) | d2- d/(B/=A/B/) f2- f/(B/A/B/) | %5
 g2- g/(B/=A/B/) =a2- a/(f/e/f/) | bB z b (b/!courtesy!=a/)(g/f/) (e/d/)(c/B/) | c3 B B2 z2 | %8
 B(f/e/) d(c/B/) cF z F | (e/d/)(c/B/) =Ae Ted z B | (a/g/)(f/e/) da Tag z g | %11
 c(d/e/) f(g/a/) d(e/f/) g(a/b/) | e(f/g/) a(b/c'/) d3 (d/e/) | f/(d/c/B/) (g/a/b/)g/ fB z (d/e/) | %14
 f/(d/c/B/) (g/a/b/)g/ fB z (f/b/) | g(f/e/) d>e Te4- | e8 | e8 |] %18
V:2
!f! [B,,E,]/[E,G,]/[G,B,]/[E,G,]/ [B,,E,]/[E,G,]/[G,B,]/[E,G,]/ [B,,D,]/[D,F,]/[F,B,]/[D,F,]/ [B,,D,]/[D,F,]/[F,B,]/[D,F,]/ | %1
 [B,,D,]/[D,F,]/[F,A,]/[D,F,]/ [B,,D,]/[D,F,]/[F,A,]/[D,F,]/ [B,,E,]/[E,G,]/[G,B,]/[E,G,]/ [B,,E,]/[E,G,]/[G,B,]/[B,,G,]/ | %2
 [D,F,]/[D,A,]/[G,B,]/[F,A,]/ [G,B,]/[F,A,]/[E,G,]/[D,F,]/ [E,G,]/[C,G,]/[F,A,]/[E,G,]/ [F,A,]/[E,G,]/[D,F,]/[C,E,]/ | %3
 [D,F,]/[B,,F,]/[E,G,]/[D,F,]/ [E,G,]/[D,F,]/[C,E,]/[B,,D,]/ [C,E,]/[A,,E,]/[D,F,]/[C,E,]/ [D,F,]/[C,E,]/[B,,D,]/[=A,,C,]/ | %4
 [B,,=D,]/[D,F,]/[F,B,]/[D,F,]/ [B,,D,]/[D,F,]/[F,B,]/[D,F,]/ [B,,D,]/[D,F,]/[F,B,]/[D,F,]/ [B,,D,]/[D,F,]/[F,B,]/[D,F,]/ | %5
 [B,,E,]/[E,G,]/[G,B,]/[E,G,]/ [B,,E,]/[E,G,]/[G,B,]/[E,G,]/ [C,F,]/[F,=A,]/[A,C]/[F,A,]/ [C,F,]/[F,A,]/[A,C]/[C,A,]/ | %6
 [B,,D,]/[D,F,]/[F,B,]/[D,F,]/ [B,,D,]/[D,F,]/[F,B,]/[D,F,]/ [B,,C,]/[C,F,]/[F,B,]/[C,F,]/ [B,,C,]/[C,F,]/[F,B,]/[C,F,]/ | %7
 [=A,,C,]/[C,F,]/[F,=A,]/[C,F,]/ [A,,C,]/[C,F,]/[F,A,]/[A,,C,]/ [F,,B,,]/[B,,D,]/[D,F,]/[B,,D,]/ [F,,B,,]/[B,,D,]/[D,F,]/[B,,D,]/ | %8
 [F,,B,,]/[B,,D,]/[D,F,]/[B,,D,]/ [F,,B,,]/[B,,D,]/[D,F,]/[F,,B,,]/ [F,,=A,,]/[A,,C,]/[C,F,]/[A,,C,]/ [F,,A,,]/[A,,C,]/[C,F,]/[A,,C,]/ | %9
 [F,,=A,,]/[A,,C,]/[C,E,]/[A,,C,]/ [F,,A,,]/[A,,C,]/[C,E,]/[A,,C,]/ [B,,D,]/[D,F,]/[F,B,]/[D,F,]/ [B,,D,]/[D,F,]/[F,B,]/[D,F,]/ | %10
 [B,,D,]/[D,F,]/[F,_A,]/[D,F,]/ [B,,D,]/[D,F,]/[F,A,]/[D,F,]/ [B,,E,]/[E,G,]/[G,B,]/[E,G,]/ [B,,E,]/[E,G,]/[G,B,]/[E,G,]/ | %11
 [C,E,]/[E,A,]/[C,E,]/[E,A,]/ [C,F,]/[F,A,]/[C,F,]/[F,A,]/ [D,F,]/[F,B,]/[D,F,]/[F,B,]/ [D,G,]/[G,B,]/[D,G,]/[G,B,]/ | %12
 [E,G,]/[G,C]/[E,G,]/[G,C]/ [E,A,]/[A,C]/[E,A,]/[A,C]/ [B,,D,]/[D,F,]/[F,B,]/[D,F,]/ [B,,D,]/[D,F,]/[F,B,]/[D,F,]/ | %13
 [B,,D,]/[D,F,]/[F,B,]/[D,F,]/ [B,,E,]/[E,G,]/[G,B,]/[B,,E,]/ [B,,D,]/[D,F,]/[F,B,]/[D,F,]/ [B,,D,]/[D,F,]/[F,B,]/[D,F,]/ | %14
 [B,,D,]/[D,F,]/[F,B,]/[D,F,]/ [B,,E,]/[E,G,]/[G,B,]/[B,,E,]/ [B,,D,]/[D,F,]/[F,B,]/[D,F,]/ [B,,D,]/[D,F,]/[F,B,]/[B,,F,]/ | %15
 [B,,E,]/[E,G,]/[G,B,]/[B,,E,]/ [B,,D,]/[D,F,]/[F,B,]/[D,F,]/ [B,,E,]/[E,G,]/[G,B,]/[E,G,]/ [B,,E,]/[E,G,]/[G,B,]/[B,,E,]/ | %16
 [G,,B,,]/[B,,E,]/[E,G,]/[B,,E,]/ [G,,B,,]/[B,,E,]/[E,G,]/[B,,E,]/ [E,,G,,]/[G,,B,,]/[B,,E,]/[G,,B,,]/ [E,,G,,]/[G,,B,,]/[B,,E,]/[G,,B,,]/ | %17
 [E,,G,,]8 |] %18

